view/frontend/web/images/step3.svg

<svg width="37" height="37" viewBox="0 0 37 37" fill="none" xmlns="http://www.w3.org/2000/svg">
<path d="M36.8571 18.0729C36.8571 28.0141 28.7982 36.0729 18.8571 36.0729C8.91593 36.0729 0.857056 28.0141 0.857056 18.0729C0.857056 8.13181 8.91593 0.072937 18.8571 0.072937C28.7982 0.072937 36.8571 8.13181 36.8571 18.0729ZM2.83706 18.0729C2.83706 26.9205 10.0095 34.0929 18.8571 34.0929C27.7047 34.0929 34.8771 26.9205 34.8771 18.0729C34.8771 9.22534 27.7047 2.05294 18.8571 2.05294C10.0095 2.05294 2.83706 9.22534 2.83706 18.0729Z" fill="#C4C4C4"/>
<path d="M19.4142 1.07206C19.4321 0.525595 19.8901 0.0942856 20.4347 0.142203C23.6397 0.424169 26.7172 1.56091 29.3422 3.44206C32.2359 5.51582 34.4497 8.40109 35.7036 11.733C36.9575 15.0649 37.1952 18.6939 36.3867 22.1609C35.5782 25.628 33.7597 28.7774 31.1613 31.2109C28.5628 33.6445 25.3011 35.2528 21.7886 35.8326C18.276 36.4124 14.6704 35.9376 11.4278 34.4682C8.18508 32.9989 5.45094 30.6009 3.57109 27.5776C1.86583 24.8351 0.933023 21.6898 0.861501 18.4732C0.849346 17.9266 1.30971 17.4979 1.85618 17.5158C2.40265 17.5337 2.82793 17.9916 2.8438 18.5381C2.92584 21.3629 3.75411 24.1223 5.25254 26.5321C6.92561 29.2228 9.35899 31.357 12.245 32.6647C15.131 33.9725 18.3399 34.3951 21.4661 33.8791C24.5922 33.363 27.4952 31.9316 29.8078 29.7657C32.1204 27.5999 33.7388 24.7969 34.4584 21.7112C35.178 18.6256 34.9664 15.3958 33.8505 12.4304C32.7345 9.465 30.7642 6.8971 28.1888 5.05146C25.8822 3.39846 23.183 2.3913 20.3697 2.1245C19.8253 2.07288 19.3963 1.61853 19.4142 1.07206Z" fill="#0B1643"/>
</svg>

<svg xmlns="http://www.w3.org/2000/svg" width="37" height="37" fill="none" xmlns:v="https://vecta.io/nano"><g clip-path="url(#A)"><circle cx="19" cy="18" r="17" fill="#fff"/><path d="M36.857 18.073c0 9.941-8.059 18-18 18s-18-8.059-18-18 8.059-18 18-18 18 8.059 18 18zm-34.02 0c0 8.848 7.172 16.02 16.02 16.02s16.02-7.172 16.02-16.02-7.172-16.02-16.02-16.02-16.02 7.172-16.02 16.02z" fill="#c4c4c4"/><path d="M19.414 1.072c.018-.546.476-.978 1.02-.93a18 18 0 0 1 15.269 11.591 18 18 0 0 1-4.542 19.478 18 18 0 0 1-19.733 3.257A18 18 0 0 1 .862 18.473c-.012-.547.448-.975.995-.957s.972.476.988 1.022a16.02 16.02 0 0 0 9.401 14.127 16.02 16.02 0 0 0 17.563-2.899 16.02 16.02 0 0 0 4.043-17.335A16.02 16.02 0 0 0 20.37 2.125c-.544-.052-.973-.506-.956-1.052z" fill="#0b1643"/></g><defs><clipPath id="A"><path fill="#fff" d="M0 0h37v37H0z"/></clipPath></defs></svg>
